X: 21713
T: SIR RONALD McDONALD
R: Reel.
B: W. Hamilton "Universal Tune-Book" Vol. 2 Glasgow 1846 p.171 #3
S: http://s3-eu-west-1.amazonaws.com/itma.dl.printmaterial/book_pdfs/hamiltonvol2web.pdf
Z: 2016 John Chambers <jc:trillian.mit.edu>
M: C|
L: 1/8
K: Gm
% - - - - - - - - - - - - - - - - - - - - - - - - -
B |\
G/G/G (dc) d3g | fdc>A FGAF |\
G/G/G BG Bddf | AFcA G3 :| \
f | gag>f dfga | fdc>A FcAf |
gag>f dfga | fdc>A G3f |\
gag>f dfga | fc d/c/B/A/ c>dfa |\
gafg dfcf | AFcA G3 |]
% - - - - - - - - - - - - - - - - - - - - - - - - -

%%sep 1 1 500
%%sep 1 1 500

